X:423
T:
N:
S:Efter »Florsen» i Burs.
R:vals
O:Gotland, Burs
M:3/4
L:1/8
K:G
B2|B4 c2|e4 d2|B4 c2|e4 d2|d4 g2|f4 e2|d4 A2|c4 B2|B4 c2|e4 d2|
B4 c2|e4 d2|d4 g2|f3 efg|a3 def|g4::gf|e2 e2 ef|d2 d2 de|
c2 c2 cd|B6|A3 Bcd|e4 d2|d3 cAB|c4 Bg|e2 e2 ef|d2 d2 de|
c2 c2 cd|B6|A3 Bcd|e4 d2|f3 def|g4:|

